X:1105
T:We won't go Home Till Morning
C:Traditional English
N:For the dance collected by Cecil Sharp
S:Colin Hume's website,  colinhume.com  - chords can also be printed below the stave.
Q:3/8=120
M:6/8
R:Jig
L:1/8
K:G
P:A
G/A/ | "G"B2B BAB | "C"c2c "G"BcB | "D7"A2A AGA | "G"B2A GDG |\
"G"B2B BAB | "C"c2d efg | "G/D"d2c "D7"B2A | "G"G3 G2 ||
P:B
|: G/B/ | "G"d2B "C"e2e | "G"d3- d2G/B/ | "G"d2B "C"e2e | "G"d3- "D7"d2G/A/ | "G"B2B BAB | "C"c2c "G"BcB |
"D7"A2A AGA | "G"B2A GDG | "G"B2B BAB | "C"c2d efg | "G/D"d2c "D7"B2A | "G"G3 G2 :|

